packages/icons/src/components/Logo/assets/light/go.svg

<svg width="20" height="20" viewBox="0 0 20 20" fill="none" xmlns="http://www.w3.org/2000/svg">
<path d="M11.4271 7.01934L11.471 7.04865C11.9871 7.38947 12.3571 7.85688 12.6006 8.42167C12.659 8.5093 12.62 8.55799 12.5032 8.58721L12.3054 8.6378C11.8582 8.753 11.5034 8.84987 11.0622 8.96507L10.8105 9.03064C10.7199 9.05306 10.6948 9.04364 10.5985 8.93388L10.5849 8.91829C10.4474 8.76248 10.3444 8.65844 10.1623 8.56555L10.1272 8.54826C9.51371 8.24639 8.91971 8.33403 8.36467 8.69432C7.7025 9.12278 7.36168 9.75573 7.37142 10.5445C7.38116 11.3235 7.91673 11.9662 8.68601 12.0733C9.34817 12.1609 9.90322 11.9272 10.3414 11.4306C10.4291 11.3235 10.507 11.2066 10.6043 11.0703H8.72496C8.52047 11.0703 8.47178 10.9437 8.53994 10.7782L8.5737 10.6987C8.69885 10.4075 8.89296 9.98901 9.01903 9.74971L9.04654 9.69822C9.08019 9.63985 9.14855 9.56097 9.28001 9.56097L12.4137 9.56095C12.5545 9.11506 12.7828 8.69374 13.0874 8.29508C13.7983 7.36026 14.6552 6.87337 15.814 6.66888C16.8072 6.4936 17.7421 6.59098 18.5892 7.1655C19.3585 7.69134 19.8357 8.40219 19.9622 9.33701C20.1278 10.6516 19.748 11.7227 18.8424 12.6381C18.1997 13.2905 17.411 13.6995 16.5054 13.8845C16.2424 13.9332 15.9795 13.9429 15.7264 13.9721C14.8402 13.9527 14.032 13.6995 13.3504 13.1152C12.8709 12.7008 12.5407 12.1915 12.3766 11.5985C12.2627 11.8285 12.1266 12.0488 11.9676 12.2583C11.2665 13.1834 10.3512 13.7579 9.19237 13.9137C8.23808 14.0403 7.35195 13.8553 6.57293 13.271C5.85234 12.7257 5.44336 12.0051 5.33625 11.1093C5.20966 10.0479 5.52126 9.09357 6.16395 8.25612C6.85533 7.35052 7.77067 6.776 8.8905 6.57151C9.78889 6.40903 10.6498 6.50921 11.4271 7.01934ZM16.0594 8.41473L16.0282 8.42167C15.1226 8.62616 14.5384 9.20068 14.3241 10.116C14.1488 10.8756 14.5189 11.6448 15.22 11.9564C15.7556 12.1901 16.2911 12.1609 16.8072 11.898C17.5765 11.4988 17.9952 10.8756 18.0439 10.0381C18.0342 9.91153 18.0342 9.81415 18.0147 9.71678C17.8414 8.76358 16.9731 8.21974 16.0594 8.41473ZM4.5475 10.1939C4.58645 10.1939 4.60592 10.2231 4.60592 10.2621L4.58645 10.4958C4.58645 10.5347 4.5475 10.564 4.51828 10.564L2.39547 10.5542C2.35652 10.5542 2.34678 10.525 2.36626 10.4958L2.50258 10.2523C2.52206 10.2231 2.56101 10.1939 2.59996 10.1939H4.5475ZM4.76173 9.29806C4.80068 9.29806 4.82015 9.32727 4.81041 9.35648L4.73251 9.59019C4.72277 9.62914 4.68382 9.64861 4.64487 9.64861L0.0389507 9.65835C0 9.65835 -0.00973768 9.63888 0.00973768 9.60966L0.214229 9.34675C0.233704 9.31753 0.282393 9.29806 0.321343 9.29806H4.76173ZM5.26808 8.40219C5.30704 8.40219 5.31677 8.4314 5.2973 8.46062L5.13176 8.7138C5.11228 8.74301 5.06359 8.77222 5.03438 8.77222L1.50934 8.76248C1.47039 8.76248 1.46065 8.74301 1.48013 8.7138L1.68462 8.45088C1.70409 8.42167 1.75278 8.40219 1.79173 8.40219H5.26808Z" fill="#00ACD7"/>
</svg>

<svg xmlns="http://www.w3.org/2000/svg" width="20" height="20" fill="none" viewBox="0 0 20 20">
    <path fill="#00acd7" d="m11.427 7.02.044.029c.516.34.886.808 1.13 1.373.058.087.019.136-.098.165l-.198.05c-.447.116-.802.213-1.243.328l-.252.066c-.09.022-.115.013-.212-.097l-.013-.016c-.138-.156-.24-.26-.423-.352l-.035-.018c-.613-.302-1.207-.214-1.762.146-.663.429-1.003 1.062-.994 1.85.01.78.546 1.422 1.315 1.53.662.087 1.217-.147 1.655-.643.088-.107.166-.224.263-.36H8.725c-.205 0-.253-.127-.185-.293l.034-.08c.125-.29.319-.709.445-.948l.028-.052a.26.26 0 0 1 .233-.137h3.134c.14-.446.369-.867.673-1.266.711-.935 1.568-1.422 2.727-1.626.993-.175 1.928-.078 2.775.497.77.525 1.247 1.236 1.373 2.171.166 1.315-.214 2.386-1.12 3.301-.642.652-1.431 1.062-2.337 1.246-.263.05-.525.059-.779.088-.886-.02-1.694-.272-2.376-.857a3.06 3.06 0 0 1-.973-1.517q-.17.345-.41.66c-.7.925-1.616 1.5-2.775 1.656-.954.126-1.84-.059-2.62-.643-.72-.545-1.129-1.266-1.236-2.162-.126-1.061.185-2.015.828-2.853.691-.905 1.607-1.48 2.726-1.684.899-.163 1.76-.063 2.537.447m4.632 1.395-.03.007c-.906.204-1.49.779-1.705 1.694-.175.76.195 1.529.896 1.84.536.234 1.071.205 1.587-.058.77-.4 1.188-1.022 1.237-1.86-.01-.126-.01-.224-.03-.321-.173-.953-1.04-1.497-1.955-1.302m-11.512 1.78c.04 0 .059.03.059.068l-.02.234c0 .039-.038.068-.068.068l-2.123-.01c-.038 0-.048-.029-.029-.058l.137-.244c.02-.029.058-.058.097-.058zm.215-.896c.039 0 .058.03.048.058l-.077.234c-.01.04-.05.059-.088.059l-4.606.01c-.039 0-.049-.02-.03-.05l.205-.262c.02-.03.068-.049.107-.049zm.506-.896c.039 0 .049.03.03.059l-.166.253c-.02.029-.068.058-.098.058l-3.525-.01c-.039 0-.048-.019-.029-.048l.205-.263c.02-.03.068-.049.107-.049z"/>
</svg>
